actions/24/tab-new.svg

<svg xmlns="http://www.w3.org/2000/svg" viewBox="0 0 24 24" width="24" height="24">
  <defs id="defs3051">
    <style type="text/css" id="current-color-scheme">.ColorScheme-Text {color:#fcfcfc;}</style>
  </defs>
  <g transform="translate(1,1)">
    <path style="fill:currentColor;fill-opacity:1;stroke:none" d="m 3,3 v 1 c 0,0 0,9 0,12 0,3 3,3 3,3 h 7 V 18 H 6 C 6,18 4,18 4,16 4,14 4,4 4,4 h 4 v 3 h 8 2 v 6 h 1 V 6 H 18 16 V 3 H 8 4 Z m 13,11 v 2 h -2 v 1 h 2 v 2 h 1 v -2 h 2 v -1 h -2 v -2 z" class="ColorScheme-Text"/>
  </g>
</svg>

<svg xmlns="http://www.w3.org/2000/svg" viewBox="0 0 24 24" width="24" height="24">
  <defs id="defs3051">
    <style type="text/css" id="current-color-scheme">
      .ColorScheme-Text {
        color:#eff0f1;
      }
      </style>
  </defs>
  <g transform="translate(1,1)">
    <path style="fill:currentColor;fill-opacity:1;stroke:none" d="M 3 3 L 3 4 L 3 18 L 3 19 L 13 19 L 13 18 L 4 18 L 4 4 L 8 4 L 8 7 L 16 7 L 18 7 L 18 13 L 19 13 L 19 6 L 18 6 L 16 6 L 16 3 L 8 3 L 4 3 L 3 3 z M 16 14 L 16 16 L 14 16 L 14 17 L 16 17 L 16 19 L 17 19 L 17 17 L 19 17 L 19 16 L 17 16 L 17 14 L 16 14 z " class="ColorScheme-Text"/>
  </g>
</svg>
